svg/fluentui-system-icons/ic_fluent_arrow_split_20_filled.svg

<svg width="20" height="20" viewBox="0 0 20 20" fill="none" xmlns="http://www.w3.org/2000/svg">
<path d="M9.99928 3C10.4135 3 10.7493 3.33579 10.7493 3.75V8H12.9947C14.0993 8 14.9947 8.89543 14.9947 10V14.4426L16.2195 13.2204C16.5127 12.9278 16.9876 12.9283 17.2802 13.2215C17.5727 13.5148 17.5722 13.9896 17.279 14.2822L14.7745 16.7814C14.4815 17.0738 14.0071 17.0735 13.7144 16.7808L11.2152 14.2816C10.9223 13.9887 10.9223 13.5139 11.2152 13.221C11.5081 12.9281 11.983 12.9281 12.2758 13.221L13.4947 14.4398V10C13.4947 9.72386 13.2709 9.5 12.9947 9.5H6.99918C6.72304 9.5 6.49918 9.72386 6.49918 10V14.4398L7.71805 13.221C8.01094 12.9281 8.48581 12.9281 8.77871 13.221C9.0716 13.5139 9.0716 13.9887 8.77871 14.2816L6.27951 16.7808C6.13886 16.9215 5.94809 17.0005 5.74918 17.0005C5.55027 17.0005 5.3595 16.9215 5.21885 16.7808L2.71967 14.2816C2.42678 13.9887 2.42678 13.5139 2.71967 13.221C3.01256 12.9281 3.48744 12.9281 3.78033 13.221L4.99918 14.4398V10C4.99918 8.89543 5.89461 8 6.99918 8H9.24928V3.75C9.24928 3.33579 9.58507 3 9.99928 3Z" fill="#212121"/>
</svg>

<svg xmlns="http://www.w3.org/2000/svg" width="20" height="20"><path d="M10 3a.75.75 0 0 1 .75.75V8h2.245a2 2 0 0 1 2 2v4.443l1.225-1.223a.75.75 0 1 1 1.059 1.062l-2.505 2.5a.75.75 0 0 1-1.06-.001l-2.499-2.5a.75.75 0 1 1 1.06-1.06l1.22 1.219V10a.5.5 0 0 0-.5-.5H6.999a.5.5 0 0 0-.5.5v4.44l1.22-1.219a.75.75 0 0 1 1.06 1.06l-2.5 2.5a.75.75 0 0 1-1.06 0l-2.5-2.5a.75.75 0 1 1 1.061-1.06L5 14.44V10a2 2 0 0 1 2-2h2.25V3.75A.75.75 0 0 1 10 3Z"/></svg>
